X:1
T:Title
%%score { ( 1 4 ) | ( 2 3 ) }
L:1/8
Q:1/4=100
M:4/4
K:Bb
V:1 treble nm="Grand Piano"
V:4 treble 
V:2 bass 
V:3 bass 
V:1
 [DB]2 [DF]2 GA B2 | [Ge]2 dc [Fd]4 | [^Fd]2 [Dc]-[DAc] [DGB]2 D-[DG] | [=Ec]2 [CB]-[CGB] A2 z2 | %4
w: William~Dressler * * * *||||
 A2 GA [FB]2 [DF]2 | [EG][FA]Bc [^Fd]4 | [Fd]2 [Ec][Fd] [Ge]G[Fd]c | [B,DB]2 [CEA]2 [B,DB]4 | %8
w: ||||
 z2 [F,B,]2 [Fd]cBA | [DB]2[K:bass] [F,B,DF]2 B,2 [F,B,]2 | z2 A,2 [Ge]dc=B | %11
w: |||
 [Ec]2 [A,EF]2 C2 A,2 | [Bd][Ac][Bd]e [df]2 [ce][Bd] | z4 [ce]4 | [Fd]2 [Ge]c [B,DB]2 [EA]2 | %15
w: ||||
[M:8/4] [B,DB]8 z8 |[M:4/4] [EB]8 | [DB]8 |] %18
w: |||
V:2
 z4 E2 z2 | [C,G,]2 [F,A,F]2 [B,,B,]4 | [D,A,]2 =E,^F, G,2 z B, | [C,G,]2 D,=E, [F,CF]2 z2 | %4
 [F,CF]2 [E,CF]2 [D,B,]2 [B,,B,]2 | [E,B,]2 [E,G,]2 [D,A,]4 | [G,=B,]2 [G,B,]2 [C,C]2 z E | %7
 F,2 F,2 B,,4 | B,,2 D,2 z EDC | z2 D,2 z4 | F,,2 F,2 z FED | F,,2 F,>F, F,,2 F,2 | z2 B,4 z2 | %13
 [F,,F,]2 [D,F,A,]2 [F,,F,]2 [E,F,]2 | [B,,B,]2 z E z2 C2 |[M:8/4] B,,8 z8 |[M:4/4] [E,G,]8 | %17
 [B,,F,]8 |] %18
V:3
 [B,,F,]2 [B,,B,]2 [E,B,][C,F,] [D,F,D]2 | x8 | z4 z2 B,,2 | x8 | x8 | x8 | z4 z2 [E,G,]2 | x8 | %8
 z4 B,,2 [D,F,B,]2 | B,,2 z z/ F,/ B,,2 D,2 | z4 F,,2 [F,A,]2 | x8 | %12
 [B,,B,]2 [D,F,]-[D,F,c] B,,2 [D,F,B,]2 | x8 | z2 [E,B,]2 F,4 |[M:8/4] x16 |[M:4/4] x8 | x8 |] %18
V:4
 x8 | x8 | z2 .G2 z2 .[CA]2 | z2 .F2 z4 | x8 | z2 G2 z4 | x8 | x8 | [DB]4 z4 | x2[K:bass] x6 | %10
 [Ec]4 z4 | x8 | x8 | [Ac][GB][Ac][Bd] z2 A,2 | x8 |[M:8/4] x16 |[M:4/4] x8 | x8 |] %18

